X:3153
T:Coconut Dance
M:2/4
L:1/16
K:D
G4|A2FG A2Bc|d2d2 f4|gfe2 ede2|fed2 dcd2|A2FG A2Bc|d2d2 f4|gfe2 ede2|d4=
c4||Bcd2 Bcd2|c2e2 e4|ABc2 ABc2|Bcde d2d2|Bcd2 Bcd2|c2e2 e4|d2F3 BA|G4||


